X: 1497
T: Duffy the Dancer   #2
T: ua du.btai.g an rinceoir.
R: reel
B: O'Neill's "Music of Ireland" 1850 #1497
O: Walsh
Z: transcribed by John B. Walsh, 8/22/96
M: C|
L: 1/8
K: A
e | Ta2(ea) cAAd | cAeA cAAe |[1 Ta2(ea) cAAd | BGdc BGBd :|[2 Tg2(fg) {b}aefd | BGdc BG G |]
e |: cAeA fAeA | cAeA cAA [1 d | cAeA fAeA | BGdc BGGd :|[2 e | Tg2fg {b}aefd | BGdc BA A |]
